X: 14923
T: Gavin MacMillan
R: reel
M: 4/4
K: Amajor
g2|:afgea2ed|ceec GABd|afgea2ed|1 dfed cAAg:|2 dfed cAAB||
A2cA eAcA|A2aA eAcA|B2dB fBdB|B2bB fBdB|
A2cA eAcA|afge fdec|deBd ceA2|ecdBA2fg||

